assets/symbols/mulberry/door.svg

<svg height="850.394" viewBox="0 0 850.394 850.394" width="850.394" xmlns="http://www.w3.org/2000/svg"><path d="m236.06 732.76 1.08-650.15h375.78l-.92 688.42h-32.35v-658.18h-308.88v658.18h-34.77v-1.03z" fill="#fff"/><path d="m579.65 112.85v651.47l-308.88-.32v-651.15zm-255.09 307.86c0-9.08-7.37-16.44-16.45-16.44s-16.44 7.36-16.44 16.44c0 9.09 7.36 16.45 16.44 16.45s16.45-7.36 16.45-16.45z" fill="#abd150"/><path d="m308.11 404.27c9.08 0 16.45 7.36 16.45 16.44 0 9.09-7.37 16.45-16.45 16.45s-16.44-7.36-16.44-16.45c0-9.08 7.36-16.44 16.44-16.44z" fill="#fbed24"/><g fill="none"><g stroke="#231f20"><path d="m98.39 771.03h172.38v-658.18h308.88v658.18h174.46" stroke-width="14"/><path d="m270 764h.77l308.88.32" stroke-width="28"/><path d="m324.56 420.71c0 9.09-7.37 16.45-16.45 16.45s-16.44-7.36-16.44-16.45c0-9.08 7.36-16.44 16.44-16.44s16.45 7.36 16.45 16.44z" stroke-width="19.099"/><path d="m612.92 733.56h139.6m-516.52 36.44.06-37.24 1.08-650.15h375.78l-.92 688.42v.97m-512.02-39.24h137.16" stroke-width="28"/></g><path d="m0 0h850.394v850.394h-850.394z"/></g></svg>

<svg xmlns="http://www.w3.org/2000/svg" width="850.394" height="850.394" viewBox="0 0 850.394 850.394" overflow="visible"><path fill="#fff" d="M236.06 732.76l1.08-650.15h375.78L612 771.03h-32.35V112.85H270.77v658.18H236V770z"/><path d="M579.65 112.85v651.47L270.77 764V112.85h308.88zM324.56 420.71c0-9.08-7.37-16.44-16.45-16.44s-16.44 7.36-16.44 16.44c0 9.09 7.36 16.45 16.44 16.45s16.45-7.36 16.45-16.45z" fill="#abd150"/><path d="M308.11 404.27c9.08 0 16.45 7.36 16.45 16.44 0 9.09-7.37 16.45-16.45 16.45s-16.44-7.36-16.44-16.45c0-9.08 7.36-16.44 16.44-16.44z" fill="#fbed24"/><g fill="none" stroke="#231f20"><path stroke-width="14" d="M98.39 771.03H270.77V112.85h308.88V771.03h174.46"/><path stroke-width="28" d="M270 764h.77l308.88.32"/><path d="M324.56 420.71c0 9.09-7.37 16.45-16.45 16.45s-16.44-7.36-16.44-16.45c0-9.08 7.36-16.44 16.44-16.44s16.45 7.36 16.45 16.44z" stroke-width="19.099"/><path stroke-width="28" d="M612.92 733.56h139.6M236 770l.06-37.24 1.08-650.15h375.78L612 771.03v.97M99.98 732.76H237.14"/></g><path fill="none" d="M0 0h850.394v850.394H0z"/></svg>
